X:162
T:The Bag of Spuds
B:Terry "Cuz" Teahan "Sliabh Luachra on Parade" 1980
Z:Patrick Cavanagh
M:4/4
L:1/8
R:Reel
K:D
| A2eA Acec | ABcd eBdB | B2dB eBdB | BcdB GBdG | 
A2eA Acec | ABcd eBdB | ABcd edBd | edgd BAA2 :| 
| a2eb ageg | agbg agef | gedc BGGd | gfga bged | 
edeg ageb | bgaf gedB | dGde gage | dBGA BAA2 :|| 

